X: 15907
T: Grand Marais
R: jig
M: 6/8
K: Amajor
|:abc' efa|gaf ecA|def agf|ecA B2A|
[1 abc' efa|gaf ecA|gaf ecA|BcB A2e:|
[2 FAd GBe|Adf Beg|aef ecA|BcB A2G||
|:FAd edF|GBe feB|abc' efa|cde cBA|
[1 FAd edF|GBe feB|aef ecA|BcB A2G:|
[2 FAd GBe|Adf Beg|aef ecA|BcB A3||

